src/app/images/squircle-mask.svg

<svg width="0" height="0"><defs><path id="squircle" d="M.541 20.09c0-9.428 0-14.142 2.929-17.071C6.399.089 11.113.089 20.541.089h18c9.428 0 14.142 0 17.071 2.93 2.929 2.929 2.929 7.643 2.929 17.07v18c0 9.429 0 14.143-2.929 17.072-2.929 2.929-7.643 2.929-17.071 2.929h-18c-9.428 0-14.142 0-17.071-2.929C.541 52.232.541 47.518.541 38.09v-18Z"/><clipPath id="squircle-clip" clipPathUnits="objectBoundingBox"><path d="M.009.346c0-.163 0-.244.05-.294.051-.05.133-.05.295-.05h.31c.163 0 .244 0 .294.051.05.05.05.132.05.294v.31c0 .163 0 .244-.05.294-.05.05-.132.05-.294.05h-.31c-.163 0-.244 0-.294-.05C.009.901.009.819.009.657v-.31"/></clipPath></defs></svg>

<svg width="0" height="0"><defs><clipPath id="squircle-clip" clipPathUnits="objectBoundingBox"><path d="M0,0.345 C0,0.182,0,0.101,0.05,0.05 C0.101,0,0.182,0,0.345,0 H0.655 C0.818,0,0.899,0,0.95,0.05 C1,0.101,1,0.182,1,0.345 V0.655 C1,0.818,1,0.899,0.95,0.95 C0.899,1,0.818,1,0.655,1 H0.345 C0.182,1,0.101,1,0.05,0.95 C0,0.899,0,0.818,0,0.655 V0.345"/></clipPath></defs></svg>
